frontend/public/svg/interface/paper-clip.svg

<svg width="64" height="153" viewBox="0 0 64 153" fill="none" xmlns="http://www.w3.org/2000/svg">
<g clip-path="url(#clip0)">
<path d="M55.4947 77.265C56.0689 62.7837 56.1636 48.3039 55.0355 33.851C54.6881 28.9667 53.9099 24.122 52.7097 19.3725C50.1615 9.60007 42.7307 4.81813 32.7393 6.28628C29.6337 6.76254 26.5944 7.59564 23.6829 8.7688C21.5833 9.60684 19.7019 10.9049 18.1791 12.5659C16.6563 14.227 15.5316 16.2079 14.8892 18.3609C13.4481 22.6874 12.3957 27.132 11.7444 31.6426C9.43969 48.7597 7.83719 65.9417 8.32478 83.247C8.56366 91.7069 8.90681 100.164 9.15947 108.624C9.16262 109.843 9.06845 111.06 8.87754 112.263C8.82314 112.886 8.5317 113.465 8.06268 113.882C7.59359 114.299 6.98199 114.523 6.35217 114.509C5.72644 114.561 5.10226 114.395 4.58593 114.04C4.06961 113.686 3.6931 113.165 3.52049 112.566C3.31737 111.93 3.1945 111.271 3.15487 110.604C1.572 94.7422 0.459658 78.849 1.73279 62.923C2.65547 51.3907 3.89382 39.8753 5.34216 28.3964C5.91881 24.0985 7.01133 19.8844 8.59647 15.8438C11.3232 8.7837 16.5436 4.00747 23.9947 2.07837C27.7831 1.07063 31.6574 0.411421 35.5678 0.108962C40.2598 -0.144573 44.9151 1.05543 48.8892 3.54294C52.8633 6.03045 55.9594 9.68237 57.7489 13.9929C59.4936 18.4473 60.6937 23.0934 61.323 27.8313C63.2747 41.2002 63.5141 54.6753 63.0396 68.1644C62.4877 83.8583 62.071 99.5587 61.3426 115.245C61.0387 121.791 60.0832 128.307 59.4165 134.837C59.3673 135.28 59.2848 135.718 59.1697 136.149C56.4791 146.521 49.4048 152.13 38.5484 152.412C36.5317 152.533 34.5076 152.44 32.5108 152.134C23.6423 150.446 17.8109 145.635 16.9243 134.686C16.146 125.06 16.4165 115.327 16.6298 105.648C16.9113 92.8463 17.475 80.047 18.1345 67.2575C18.5874 58.4885 18.5341 49.6223 20.9418 41.081C21.8644 37.7644 23.2239 34.583 24.9851 31.6191C27.8667 26.8384 32.5976 25.4073 38.8497 27.0558C42.1893 27.9367 43.8238 30.4563 44.3534 33.5938C45.2236 38.7476 46.0748 43.9235 46.5257 49.1255C47.7312 63.0225 47.2419 76.9453 46.8461 90.8657C46.6624 97.3204 46.7967 103.784 46.7599 110.244C46.7919 111.241 46.7018 112.238 46.4911 113.213C46.2868 114.065 45.7888 114.82 45.0834 115.347C44.378 115.874 43.5094 116.141 42.6273 116.1C41.7452 116.059 40.9052 115.715 40.2519 115.126C39.5986 114.536 39.1731 113.739 39.049 112.871C38.9304 111.878 38.9019 110.875 38.9638 109.876C39.1639 93.8385 39.6148 77.7995 39.4809 61.7628C39.4107 53.3256 38.343 44.895 37.675 36.4657C37.5654 35.077 37.675 33.4433 35.7876 32.9498C34.1634 32.526 32.4563 33.3099 31.3249 35.2C28.7701 39.5527 27.3096 44.4518 27.0666 49.483C26.2542 63.1553 25.6098 76.8353 25.0158 90.5181C24.5906 100.307 24.2737 110.101 24.0655 119.899C23.9736 123.903 24.1764 127.918 24.3366 131.924C24.6916 140.797 29.8538 145.318 38.7808 144.634C39.5637 144.574 40.3446 144.469 41.1209 144.347C46.7398 143.463 50.8438 140.722 51.8177 134.861C52.7468 129.605 53.3821 124.301 53.7207 118.975C54.4722 105.087 54.9263 91.173 55.4947 77.265Z" fill="black"/>
</g>
<defs>
<clipPath id="clip0">
<rect width="63" height="153" fill="white" transform="translate(0.777344)"/>
</clipPath>
</defs>
</svg>

<svg xmlns="http://www.w3.org/2000/svg" width="64" height="153" fill="none" viewBox="0 0 64 153"><g clip-path="url(#a)"><path fill="#000" d="M55.495 77.265c.574-14.481.669-28.961-.46-43.414a83 83 0 0 0-2.325-14.478C50.16 9.6 42.73 4.817 32.74 6.285a40.8 40.8 0 0 0-9.057 2.483 15 15 0 0 0-5.504 3.797 14.9 14.9 0 0 0-3.29 5.795 76.7 76.7 0 0 0-3.145 13.282c-2.304 17.118-3.907 34.3-3.42 51.605.24 8.46.583 16.917.835 25.377a23 23 0 0 1-.281 3.639 2.45 2.45 0 0 1-.815 1.619 2.5 2.5 0 0 1-1.71.627 2.72 2.72 0 0 1-1.767-.469 2.7 2.7 0 0 1-1.066-1.474 8 8 0 0 1-.365-1.962C1.572 94.742.46 78.849 1.733 62.923c.922-11.532 2.16-23.048 3.61-34.527a54 54 0 0 1 3.253-12.552c2.727-7.06 7.948-11.837 15.399-13.766A64.3 64.3 0 0 1 35.568.11a22.8 22.8 0 0 1 13.321 3.434 22.5 22.5 0 0 1 8.86 10.45 59.4 59.4 0 0 1 3.574 13.838c1.952 13.37 2.191 26.844 1.717 40.333-.552 15.694-.969 31.395-1.697 47.081-.304 6.546-1.26 13.062-1.927 19.592q-.074.665-.246 1.312c-2.69 10.372-9.765 15.981-20.622 16.263-2.016.121-4.04.028-6.037-.278-8.869-1.688-14.7-6.499-15.587-17.448-.778-9.626-.508-19.359-.294-29.038.281-12.802.845-25.601 1.505-38.39.452-8.77.4-17.636 2.807-26.177a39 39 0 0 1 4.043-9.462c2.882-4.78 7.613-6.212 13.865-4.563 3.34.88 4.974 3.4 5.503 6.538.87 5.154 1.722 10.33 2.173 15.532 1.205 13.897.716 27.82.32 41.74-.184 6.454-.05 12.918-.086 19.378.032.997-.058 1.994-.269 2.969a3.76 3.76 0 0 1-1.408 2.134 3.81 3.81 0 0 1-4.831-.221 3.76 3.76 0 0 1-1.203-2.255 16.6 16.6 0 0 1-.085-2.995c.2-16.038.65-32.077.517-48.113-.07-8.437-1.138-16.868-1.806-25.297-.11-1.389 0-3.023-1.887-3.516-1.625-.424-3.332.36-4.463 2.25a31.2 31.2 0 0 0-4.258 14.283c-.813 13.672-1.457 27.352-2.051 41.035a1326 1326 0 0 0-.95 29.381c-.092 4.004.11 8.019.27 12.025.356 8.873 5.518 13.394 14.445 12.71.783-.06 1.564-.165 2.34-.287 5.619-.884 9.723-3.625 10.697-9.486a144 144 0 0 0 1.903-15.886c.751-13.888 1.205-27.802 1.774-41.71"/></g><defs><clipPath id="a"><path fill="#fff" d="M.777 0h63v153h-63z"/></clipPath></defs></svg>
